X: 1
T: For Bret and Brenda 5/12/97
C: Amy E Hasbrouck
M: C|
L: 1/8
K: D
F2 | "D"AF2A- A2B2 | "A"A2GF- F2E2 | "Bm"D2EF- F2G2 | "F#m"FE2D- D2DC |
w: Your stea-dy gaze* re-quires of me* un-com-pro-mis-*ing ho-nest-y.* When~ I'm
| "G"B,2CD- D2B,2 | "D"A,2DF- F3D | "G"G2F2 E2D2 | "A"E4- E2FG |
w: lost, it's your* te-na-ci-ty* that sets me on my way.*  With an
| "D"A2FA- A2B2 | "A"A2G2 F3E | "Bm"D2EF- F2G2 | "F#m"FE2D- D2DC |
w: el-e-gance* that strength has sown you take a place* and make it home* your in-
| "G"B,2CD- D2(CB,) | "D"A,D2F- F2D2 | "A"G2F2 EC3 | "D"D4 ||
w: tell-i-gence* and* wit are honed* with in-tu-i-tion's flame.
P: Chorus:
|| "D"z2FG AGF2 | "A"E8- | "Bm"E2DE F2ED | "F#m"C6 C2 |
w: Jag-ged edg-es wear down* on the hard shell a-round the
| "G"B,2B,B,- B,2-A,2- | "D"A,4- A,2A,2 | "G"B,4B,4 | "A"C8 |
w: ten-der co-*ore** we hide in-side
| "D"z2FG AGF2 | "A"E8- | "Bm"E2DE F2ED | "F#m"C6 C2 |
w: Fear con-ceal-*ing us* yields to love's heal-ing touch re-
| "G"B,2B,B,- B,2-A,2- | "D"A,8 | "G"B,4 B,4 | "A"C4 CB,CD- | "D"D8 ||
w: veal-ing so-*ouls* burn-ing bright all through the night.
P: Antiphon:
|| D8 | A8 | B8 | F8 | G8 | D8 | G8 | E8 |
w: Giv-ing tak-ing, our love, mak-ing
|| D8 | A8 | B8 | F8 | G8 | D8 | G8 | E4 EDEF | F8 ||
w: I will hold you peace en-fold you all through the night.
P: Coda:
| "D"[F8d8] | "A"[E8c8] | "Bm"[D8B8] | "F#m"[C8A8] | "G"[B,4G4] [B,2G2][A,2F2]- | "D"[A,8F8] |
w: Burn on, Shine on, lov-ing hearts
| "G"[B,4G4] [B,4G4] | "A"[C4A4] [CA][B,A][CG][DF]- | "D"[D8F8] |]
w: burn-ing bright all~ through~ the~ night.
%
W: Verse:
W:     Your steady gaze requires of me
W:     Uncompromising honesty.
W:     When I'm lost, it's your tenacity
W:     that sets me on my way.
W:
W:     With an elegance that strength has sown
W:     you take a place and make it home
W:     your intelligence and wit are honed
W:     with intuition's flame.
W:
W: Chorus:
W:     Jagged edges wear down
W:     on the hard shell around
W:     the tender core
W:     we hide inside.
W:     Fear concealing us
W:     yields to love's healing touch
W:     revealing souls
W:     burning bright
W:           all through the night.
W:
W: Verse:
W:     Your acceptance and respect for me
W:     surprisingly have set me free
W:     I have grown in my capacity
W:     to trust and to believe.
W:
W:     With our minds entwined we fly away
W:     to explore fantastic worlds and ways
W:     then return to where our bodies lay
W:     dissolving into sleep.
W:
W: Coda:
W:     Burn on
W:     Shine on
W:     Loving hearts
W:     Burning bright
W:           all through the night.
